X: 1
T: Ragtime Annie
M: 4/4
L: 1/8
R: Reel
K: Dmaj
| DE |: FFBF AFBF | AFBF A2 DE | FFBF AFBF | E2 c2 c2 cB |
| ABcA BAcB | ABcA BAcB |ABcd egfe |1 dBAF D2 DE :|2 dBAF D2 fg ||
| a2 aa a2 f2 | A2 AA A2 fg | a2 aa a2 g2 | B2 BB B2 ef |
| gfef g2 ef | gfed c2 AB | cBAc BAGA | F2 FF F2 fg |
| a2 aa a2 f2 | A2 AA A2 fg | a2 aa a2 g2 | b2 bb b4 |
| g b2 g b4 | f a2 f a4 | ABcd egfe | dBAF D2 ||